images/svg/masseg.svg

<svg width="22" height="16" viewBox="0 0 22 16" fill="none" xmlns="http://www.w3.org/2000/svg">
<path d="M1.60967 0C1.4025 0 1.20431 0.0440005 1.02277 0.124916L10.4553 9.29825C10.7956 9.62857 11.2228 9.62836 11.5621 9.29825L20.9775 0.124916C20.7959 0.0439961 20.5977 0 20.3906 0H1.60967ZM0.0166563 1.57691C0.00561441 1.66405 0 1.75549 0 1.84606V14.1541C0 14.4129 0.0426698 14.6617 0.125764 14.8849L6.67413 8.0386L0.0166563 1.57691ZM21.9835 1.57691L15.3431 8.02929L21.8742 14.885C21.9573 14.6618 22 14.413 22 14.1541V1.8461C22 1.75531 21.994 1.66408 21.9833 1.57694L21.9835 1.57691ZM14.1109 9.23097L12.6017 10.7021C11.6865 11.5926 10.3307 11.5909 9.41567 10.7021L7.91494 9.24037L1.45904 15.9906C1.50807 15.9955 1.55973 16 1.60988 16H20.3907C20.4436 16 20.4983 15.9959 20.5499 15.9906L14.1109 9.23097Z" fill="white"/>
</svg>

<svg xmlns="http://www.w3.org/2000/svg" width="22" height="16" fill="none"><path fill="#fff" d="M1.61 0c-.208 0-.406.044-.587.125l9.432 9.173c.34.33.768.33 1.107 0L20.977.125A1.437 1.437 0 0 0 20.392 0H1.61ZM.017 1.577a2.16 2.16 0 0 0-.017.27v12.307c0 .259.043.508.126.73L6.674 8.04.017 1.577Zm21.966 0-6.64 6.452 6.531 6.856a2.1 2.1 0 0 0 .126-.73V1.845c0-.09-.006-.182-.017-.27ZM14.111 9.23l-1.51 1.471c-.915.89-2.27.889-3.185 0L7.915 9.24l-6.456 6.75c.05.005.1.01.15.01h18.782c.053 0 .107-.004.159-.01l-6.44-6.759Z"/></svg>
